src/assets/SmileasyPaymentPlan/3.svg

<svg height="40" viewBox="0 0 40 40" width="40" xmlns="http://www.w3.org/2000/svg"><g fill="none" fill-rule="evenodd"><path d="m19.7114258 27.215332c1.4902344 0 2.6984863-.3845215 3.6247558-1.1535644.9262696-.769043 1.3894043-1.8508301 1.3894043-3.2453614 0-.8066406-.1948242-1.5107421-.5844726-2.1123046-.3896485-.6015625-1.0185547-1.0561524-1.8867188-1.3637696.7382813-.3349609 1.2971192-.7946777 1.6765137-1.3791504.3793945-.5844726.5690918-1.201416.5690918-1.85083 0-1.3876954-.4272461-2.4438477-1.2817383-3.1684571-.8544922-.7246093-2.0234375-1.086914-3.5068359-1.086914-1.4082031 0-2.5532227.3845215-3.4350586 1.1535644-.881836.769043-1.3227539 1.751709-1.3227539 2.9479981h2.4916992c0-.6425782.2102051-1.1535645.6306152-1.532959.4204102-.3793945.9758301-.5690918 1.6662598-.5690918.7587891 0 1.3261719.1931152 1.7021484.5793457.3759766.3862305.5639649.9450683.5639649 1.6765137 0 .7451172-.1726074 1.3142089-.5178223 1.7072754-.3452148.3930664-.9313965.5895996-1.7585449.5895996h-1.7329102v1.9584961h1.7329102c.8681641 0 1.5021973.1948242 1.9020996.5844726.3999023.3896485.5998535 1.0151367.5998535 1.8764649 0 .7792968-.21875 1.3740234-.65625 1.7841796-.4375.4101563-1.0493164.6152344-1.8354492.6152344-.7519531 0-1.3466797-.2016601-1.7841797-.6049804-.4375-.4033204-.65625-.9433594-.65625-1.6201172h-2.4916992c0 1.3603515.4648437 2.402832 1.3945312 3.1274414.9296875.7246093 2.0986329 1.086914 3.506836 1.086914z" fill="#fff" fill-rule="nonzero"/><circle cx="20" cy="20" r="19" stroke="#fff" stroke-width="2"/></g></svg>

<?xml version="1.0" encoding="UTF-8"?>
<svg width="40px" height="40px" viewBox="0 0 40 40" version="1.1" xmlns="http://www.w3.org/2000/svg" xmlns:xlink="http://www.w3.org/1999/xlink">
    <title>Group 12</title>
    <g id="Design" stroke="none" stroke-width="1" fill="none" fill-rule="evenodd">
        <g id="Smileeasy-Payment-Plan" transform="translate(-1029.000000, -5007.000000)">
            <g id="How-it-works" transform="translate(3.000000, 3889.000000)">
                <g id="done" transform="translate(914.000000, 1086.000000)">
                    <g id="Group-12" transform="translate(112.000000, 32.000000)">
                        <path d="M19.7114258,27.215332 C21.2016602,27.215332 22.4099121,26.8308105 23.3361816,26.0617676 C24.2624512,25.2927246 24.7255859,24.2109375 24.7255859,22.8164062 C24.7255859,22.0097656 24.5307617,21.3056641 24.1411133,20.7041016 C23.7514648,20.1025391 23.1225586,19.6479492 22.2543945,19.340332 C22.9926758,19.0053711 23.5515137,18.5456543 23.9309082,17.9611816 C24.3103027,17.376709 24.5,16.7597656 24.5,16.1103516 C24.5,14.7226562 24.0727539,13.6665039 23.2182617,12.9418945 C22.3637695,12.2172852 21.1948242,11.8549805 19.7114258,11.8549805 C18.3032227,11.8549805 17.1582031,12.239502 16.2763672,13.0085449 C15.3945312,13.7775879 14.9536133,14.7602539 14.9536133,15.956543 L14.9536133,15.956543 L17.4453125,15.956543 C17.4453125,15.3139648 17.6555176,14.8029785 18.0759277,14.423584 C18.4963379,14.0441895 19.0517578,13.8544922 19.7421875,13.8544922 C20.5009766,13.8544922 21.0683594,14.0476074 21.4443359,14.4338379 C21.8203125,14.8200684 22.0083008,15.3789062 22.0083008,16.1103516 C22.0083008,16.8554688 21.8356934,17.4245605 21.4904785,17.817627 C21.1452637,18.2106934 20.559082,18.4072266 19.7319336,18.4072266 L19.7319336,18.4072266 L17.9990234,18.4072266 L17.9990234,20.3657227 L19.7319336,20.3657227 C20.6000977,20.3657227 21.2341309,20.5605469 21.6340332,20.9501953 C22.0339355,21.3398438 22.2338867,21.965332 22.2338867,22.8266602 C22.2338867,23.605957 22.0151367,24.2006836 21.5776367,24.6108398 C21.1401367,25.0209961 20.5283203,25.2260742 19.7421875,25.2260742 C18.9902344,25.2260742 18.3955078,25.0244141 17.9580078,24.6210938 C17.5205078,24.2177734 17.3017578,23.6777344 17.3017578,23.0009766 L17.3017578,23.0009766 L14.8100586,23.0009766 C14.8100586,24.3613281 15.2749023,25.4038086 16.2045898,26.128418 C17.1342773,26.8530273 18.3032227,27.215332 19.7114258,27.215332 Z" id="3" fill="#FFFFFF" fill-rule="nonzero"></path>
                        <circle id="Oval" stroke="#FFFFFF" stroke-width="2" cx="20" cy="20" r="19"></circle>
                    </g>
                </g>
            </g>
        </g>
    </g>
</svg>
